X:870
T:Auld Reekie
R:strathspey
C:traditional
O:Scottish
D:Hamish Moore, Stepping on the Bridge, Greentrax
B:The Rumblin' Brig, Hamish Moore
S:Silver Apple News,1994
N:Contacts ...
N:..... Cranford Publications <http://www.cranfordpub.com>
Z:This abc transcription is for personal use only, 
Z:provided this notice remains attached.
Z:Paul Stewart Cranford 
Q:288
L:1/8
M:C|
K:Amix
a|A<Ae>A c>BA>c|e2 a>e f>ec<e|d2 f>d c2 a>c|B>dc>e d/c/B/A/ G>B|!
A<Ae>A c>BA>c|e2 a>e f>ec<e|d>ef>d e>ca>f|e>cd<B A2 a||!
e|c<ee>A d<ef>e|c<ea>e f>ec<e|c<ee>A (3cde a>c|B>dc>e d/c/B/A/ G>B|!
(3cde e>A d<ef>e|(3cde a>e f>ec<e|d>ef>d e>ca>f|e>cd<B A2 a|]!
